src/assets/img/icons/duotone-icons/Weather/Fahrenheit.svg

<?xml version="1.0" encoding="UTF-8"?>
<svg width="24px" height="24px" viewBox="0 0 24 24" version="1.1" xmlns="http://www.w3.org/2000/svg" xmlns:xlink="http://www.w3.org/1999/xlink">
    <!-- Generator: Sketch 52.2 (67145) - http://www.bohemiancoding.com/sketch -->
    <title>Stockholm-icons / Weather / Fahrenheit</title>
    <desc>Created with Sketch.</desc>
    <g id="Stockholm-icons-/-Weather-/-Fahrenheit" stroke="none" stroke-width="1" fill="none" fill-rule="evenodd">
        <polygon id="Shape" points="0 0 24 0 24 24 0 24"></polygon>
        <polygon id="°F" fill="#335EEA" points="11.604 6 20 6 20 8 14 8 14 11.728 19.488 11.728 19.488 13.636 14 13.636 14 19 11.604 19"></polygon>
        <path d="M3.72,8.92 C3.72,8.52399802 3.79499925,8.15200174 3.945,7.804 C4.09500075,7.45599826 4.30199868,7.15000132 4.566,6.886 C4.83000132,6.62199868 5.13599826,6.41500075 5.484,6.265 C5.83200174,6.11499925 6.20399802,6.04 6.6,6.04 C6.99600198,6.04 7.36799826,6.11499925 7.716,6.265 C8.06400174,6.41500075 8.36999868,6.62199868 8.634,6.886 C8.89800132,7.15000132 9.10499925,7.45599826 9.255,7.804 C9.40500075,8.15200174 9.48,8.52399802 9.48,8.92 C9.48,9.31600198 9.40500075,9.68799826 9.255,10.036 C9.10499925,10.3840017 8.89800132,10.6899987 8.634,10.954 C8.36999868,11.2180013 8.06400174,11.4249992 7.716,11.575 C7.36799826,11.7250007 6.99600198,11.8 6.6,11.8 C6.20399802,11.8 5.83200174,11.7250007 5.484,11.575 C5.13599826,11.4249992 4.83000132,11.2180013 4.566,10.954 C4.30199868,10.6899987 4.09500075,10.3840017 3.945,10.036 C3.79499925,9.68799826 3.72,9.31600198 3.72,8.92 Z M5.124,8.92 C5.124,9.32800204 5.26799856,9.67599856 5.556,9.964 C5.84400144,10.2520014 6.19199796,10.396 6.6,10.396 C7.00800204,10.396 7.35599856,10.2520014 7.644,9.964 C7.93200144,9.67599856 8.076,9.32800204 8.076,8.92 C8.076,8.51199796 7.93200144,8.16400144 7.644,7.876 C7.35599856,7.58799856 7.00800204,7.444 6.6,7.444 C6.19199796,7.444 5.84400144,7.58799856 5.556,7.876 C5.26799856,8.16400144 5.124,8.51199796 5.124,8.92 Z" id="Combined-Shape" fill="#335EEA" opacity="0.3"></path>
    </g>
</svg>

<svg width="24" height="24" viewBox="0 0 24 24" xmlns="http://www.w3.org/2000/svg"><g fill="none" fill-rule="evenodd"><path d="M0 0h24v24H0z"/><path fill="#335EEA" d="M11.604 6H20v2h-6v3.728h5.488v1.908H14V19h-2.396z"/><path d="M3.72 8.92c0-.396.075-.768.225-1.116a2.92 2.92 0 011.539-1.539c.348-.15.72-.225 1.116-.225.396 0 .768.075 1.116.225a2.92 2.92 0 011.539 1.539c.15.348.225.72.225 1.116 0 .396-.075.768-.225 1.116a2.92 2.92 0 01-1.539 1.539c-.348.15-.72.225-1.116.225-.396 0-.768-.075-1.116-.225a2.92 2.92 0 01-1.539-1.539A2.789 2.789 0 013.72 8.92zm1.404 0c0 .408.144.756.432 1.044.288.288.636.432 1.044.432.408 0 .756-.144 1.044-.432.288-.288.432-.636.432-1.044 0-.408-.144-.756-.432-1.044A1.422 1.422 0 006.6 7.444c-.408 0-.756.144-1.044.432a1.422 1.422 0 00-.432 1.044z" fill="#335EEA" opacity=".3"/></g></svg>
